sources/design/Outline/്വ.svg

<svg:svg xmlns:cc="http://creativecommons.org/ns#" xmlns:dc="http://purl.org/dc/elements/1.1/" xmlns:inkscape="http://www.inkscape.org/namespaces/inkscape" xmlns:rdf="http://www.w3.org/1999/02/22-rdf-syntax-ns#" xmlns:sodipodi="http://sodipodi.sourceforge.net/DTD/sodipodi-0.dtd" xmlns:svg="http://www.w3.org/2000/svg" xml:space="preserve" width="1000" height="1000" version="1.1" style="clip-rule:evenodd;fill-rule:evenodd;image-rendering:optimizeQuality;shape-rendering:geometricPrecision;text-rendering:geometricPrecision" viewBox="0 0 1000 1000" id="svg10" sodipodi:docname="്വ.svg" inkscape:version="1.0.2 (e86c870879, 2021-01-15)"><svg:metadata id="metadata14"><rdf:RDF><cc:Work rdf:about=""><dc:format>image/svg+xml</dc:format><dc:type rdf:resource="http://purl.org/dc/dcmitype/StillImage" /><dc:title /></cc:Work></rdf:RDF></svg:metadata><sodipodi:namedview pagecolor="#ffffff" bordercolor="#666666" borderopacity="1" objecttolerance="10" gridtolerance="10" guidetolerance="10" inkscape:pageopacity="0" inkscape:pageshadow="2" inkscape:window-width="1920" inkscape:window-height="1009" id="namedview12" showgrid="false" inkscape:zoom="0.84890884" inkscape:cx="22.255248" inkscape:cy="285.95007" inkscape:window-x="1920" inkscape:window-y="0" inkscape:window-maximized="1" inkscape:current-layer="svg10" showguides="true" inkscape:guide-bbox="true" inkscape:document-rotation="0" inkscape:pagecheckerboard="0"><sodipodi:guide position="0,1000" orientation="0,1" id="guide16" inkscape:label="" inkscape:locked="true" inkscape:color="rgb(0,0,255)" /><sodipodi:guide position="1763.3122,2036.1693" orientation="1000,0" id="guide18" /><sodipodi:guide position="0,200" orientation="0,1" id="guide20" inkscape:label="base" inkscape:locked="true" inkscape:color="rgb(0,0,255)" /><inkscape:grid type="xygrid" id="grid24" originx="-473.37552" originy="-489.69235" /><sodipodi:guide position="0,0" orientation="0,1" id="guide34" inkscape:label="bottom" inkscape:locked="true" inkscape:color="rgb(0,0,255)" /><sodipodi:guide position="225.05109,1693.3186" orientation="0,1" id="guide44" inkscape:label="" inkscape:locked="false" inkscape:color="rgb(0,0,255)" /><sodipodi:guide position="0,900" orientation="0,1" id="guide46" inkscape:label="" inkscape:locked="true" inkscape:color="rgb(0,0,255)" /><sodipodi:guide position="161.95736,845.13789" orientation="-1,0" id="guide840" inkscape:label="width" inkscape:locked="false" inkscape:color="rgb(0,0,255)" /></sodipodi:namedview>
 <svg:defs id="defs4"><inkscape:path-effect effect="fillet_chamfer" id="path-effect843" is_visible="true" lpeversion="1" satellites_param="F,0,0,1,0,16.15953,0,1 @ F,0,0,1,0,18.189666,0,1 @ F,0,0,1,0,0,0,1 @ F,0,0,1,0,0,0,1 @ F,0,0,1,0,0,0,1 @ F,0,0,1,0,0,0,1 @ F,0,0,1,0,0,0,1 @ F,0,0,1,0,0,0,1 @ F,0,0,1,0,0,0,1 @ F,0,0,1,0,0,0,1 @ F,0,0,1,0,11.45496,0,1 @ F,0,0,1,0,19.925389,0,1 @ F,0,0,1,0,0,0,1 @ F,0,0,1,0,0,0,1 @ F,0,0,1,0,0,0,1 @ F,0,0,1,0,0,0,1 @ F,0,0,1,0,0,0,1 @ F,0,0,1,0,0,0,1 @ F,0,0,1,0,0,0,1 @ F,0,0,1,0,0,0,1" unit="px" method="auto" mode="F" radius="0" chamfer_steps="1" flexible="false" use_knot_distance="true" apply_no_radius="true" apply_with_radius="true" only_selected="true" hide_knots="false" /><inkscape:path-effect effect="fillet_chamfer" id="path-effect842" is_visible="true" lpeversion="1" satellites_param="F,0,1,1,0,19.586923,0,1 @ F,0,1,1,0,19.586923,0,1 @ F,0,0,1,0,0,0,1 @ F,0,0,1,0,0,0,1 @ F,0,0,1,0,0,0,1 @ F,0,0,1,0,0,0,1 @ F,0,0,1,0,0,0,1 @ F,0,0,1,0,0,0,1 @ F,0,0,1,0,0,0,1 @ F,0,0,1,0,0,0,1 @ F,0,1,1,0,19.586923,0,1 @ F,0,1,1,0,19.586923,0,1 @ F,0,0,1,0,0,0,1 @ F,0,0,1,0,0,0,1 @ F,0,0,1,0,0,0,1 @ F,0,0,1,0,0,0,1 @ F,0,0,1,0,0,0,1 @ F,0,0,1,0,0,0,1 @ F,0,0,1,0,0,0,1" unit="px" method="auto" mode="F" radius="0" chamfer_steps="1" flexible="false" use_knot_distance="true" apply_no_radius="true" apply_with_radius="true" only_selected="true" hide_knots="false" /><inkscape:path-effect effect="fillet_chamfer" id="path-effect841" is_visible="true" lpeversion="1" satellites_param="F,0,0,1,0,21.699264,0,1 @ F,0,0,1,0,30.783669,0,1 @ F,0,0,1,0,36.02233,0,1 @ F,0,0,1,0,0,0,1 @ F,0,0,1,0,0,0,1 @ F,0,0,1,0,22.041744,0,1 @ F,0,0,1,0,29.003567,0,1 @ F,0,0,1,0,0,0,1 @ F,0,0,1,0,0,0,1 @ F,0,0,1,0,0,0,1 @ F,0,0,1,0,0,0,1 @ F,0,0,1,0,0,0,1 @ F,0,0,1,0,0,0,1 @ F,0,0,1,0,0,0,1" unit="px" method="auto" mode="F" radius="0" chamfer_steps="1" flexible="false" use_knot_distance="true" apply_no_radius="true" apply_with_radius="true" only_selected="true" hide_knots="false" />
  <svg:style type="text/css" id="style2">
   
    .fil0 {fill:#EF7F1A;fill-rule:nonzero}
   
  </svg:style>
 <inkscape:path-effect effect="spiro" id="path-effect1214" is_visible="true" lpeversion="1" /><inkscape:path-effect effect="spiro" id="path-effect1195" is_visible="true" lpeversion="1" /></svg:defs>
 
<svg:g id="path933-9-3-62-3-6"><svg:path style="color:#000000;clip-rule:nonzero;fill:#1a5fb4;fill-rule:nonzero;stroke-linecap:round;stroke-linejoin:round;-inkscape-stroke:none;paint-order:fill stroke markers;shape-rendering:auto" d="M 28.03125,181.2168 C 21.143265,181.56380000000001 14.28772,183.39786 8.173828100000001,186.87305 C -4.053955999999998,193.82343 -12.296087,206.94553000000002 -14.259765999999999,220.39844 C -16.898649,238.47709 -18.997452,256.63358 -20.552734,274.83789 C -27.222949,352.9116 -23.835939,431.30809 -13.3125,508.25586 C 0.22507711000000086,607.24312 24.639449,701.58401 28.675781,794.77539 C 29.073168,803.9503100000001 29.049582,811.46056 28.064453,817.09375 C 27.118585,822.50244 25.109038,826.38614 23.650391,827.98828 C 22.360335,829.40525 19.340540999999998,831.46392 15.015624999999998,832.86328 C 10.532415999999998,834.31386 4.458292899999998,835.22725 -2.9511719000000003,835.72852 C -57.909286,839.44653 -117.89016000000001,819.6213300000001 -185.32811999999998,813.16016 C -228.16715,809.05578 -271.54602,811.46096 -313.65819999999997,820.23242 C -326.13608999999997,822.8314200000001 -337.90601999999996,831.4468300000001 -343.66992,843.17578 C -349.43383,854.9047400000001 -349.11082,868.93664 -343.99023,880.28711 L -297.31055,983.75586 C -286.5068,1007.7038 -258.40765999999996,1018.0948999999999 -234.83594,1008.9238 C -209.66992,999.1324900000001 -183.22987999999998,992.52597 -156.42969,989.34961 C -81.56986699999999,980.47721 0.5562989100000095,999.525 88.703125,994.27148 C 102.6918,993.43776 118.48476,991.9607 134.97460999999998,986.42773 C 151.72015,980.80897 168.83594,970.9715 181.33398,954.22852 C 189.49205,943.29957 194.13172,931.42962 196.86523,920.1582 C 199.58037,908.9625699999999 200.41384,898.46561 200.82617,889.0332 C 205.08159999999998,791.68738 166.60359,705.11659 151.69727,622.9609399999999 C 138.49831,550.2153699999999 140.91019,474.33629999999994 154.56641,400.38476999999995 C 161.95486,360.3745799999999 172.57253,320.94975999999997 186.27148,282.63671999999997 C 193.76846,261.66929 183.29838999999998,237.95731999999998 162.33983999999998,229.66796999999997 L 48.087891,184.48047 C 41.840015,182.00936 34.919235,180.86979 28.03125,181.2168 M 42.779297,246.9043 L 124.18945,279.10156 C 112.15168,315.19485000000003 102.47434999999999,352.06961 95.56445299999999,389.48828000000003 C 80.80961099999999,469.38912000000005 77.93014099999999,552.4771900000001 92.66210899999999,633.67187 C 109.27695999999999,725.24398 144.33844,807.36219 140.88280999999998,886.41211 C 140.54978999999997,894.0302 139.86194999999998,900.62721 138.55468999999997,906.01758 C 137.26580999999996,911.3321599999999 135.30297999999996,915.5902299999999 133.25194999999997,918.3378899999999 C 130.13740999999996,922.5102899999999 123.88727999999996,926.8610899999999 115.88866999999996,929.5449199999999 C 107.63436999999996,932.3145499999999 97.19783399999996,933.6598399999999 85.13281199999996,934.3789099999999 C 8.739973399999954,938.93189 -74.66601100000004,919.2379299999999 -163.49219000000005,929.7656199999999 C -191.95793000000006,933.1393899999999 -219.93611000000004,939.9248699999999 -246.90234000000004,949.5859399999999 L -280.41797,875.2968699999999 C -250.86358,870.9091799999999 -220.76511000000002,870.0398099999999 -191.05078000000003,872.8867199999999 C -133.03026000000003,878.4456199999998 -69.68783300000003,900.3806999999998 1.099609399999963,895.5917999999998 C 10.717119999999962,894.9411499999998 21.732420999999963,893.7522899999998 33.486327999999965,889.9492199999999 C 45.39852799999996,886.0949299999999 57.818594999999966,879.5831899999998 68.01757799999996,868.3808599999999 C 79.51209299999996,855.7555399999999 84.79933399999996,840.9740799999998 87.16796899999996,827.4296899999998 C 89.49734299999996,814.1097999999998 89.05433299999996,802.2274599999998 88.61914099999996,792.1796899999998 C 84.216137,690.52256 59.023819,594.37023 46.134766,500.125 C 36.118974,426.88916 32.997341,352.903 39.230469,279.94531 C 40.173497,268.90733 41.409377,257.89779 42.779297,246.9043" id="path21090" /></svg:g></svg:svg>

<svg:svg xmlns:cc="http://creativecommons.org/ns#" xmlns:dc="http://purl.org/dc/elements/1.1/" xmlns:inkscape="http://www.inkscape.org/namespaces/inkscape" xmlns:rdf="http://www.w3.org/1999/02/22-rdf-syntax-ns#" xmlns:sodipodi="http://sodipodi.sourceforge.net/DTD/sodipodi-0.dtd" xmlns:svg="http://www.w3.org/2000/svg" xml:space="preserve" width="1000" height="1000" version="1.1" style="clip-rule:evenodd;fill-rule:evenodd;image-rendering:optimizeQuality;shape-rendering:geometricPrecision;text-rendering:geometricPrecision" viewBox="0 0 1000 1000" id="svg10" sodipodi:docname="്വ.svg" inkscape:version="1.0.2 (e86c870879, 2021-01-15)"><svg:metadata id="metadata14"><rdf:RDF><cc:Work rdf:about=""><dc:format>image/svg+xml</dc:format><dc:type rdf:resource="http://purl.org/dc/dcmitype/StillImage" /><dc:title /></cc:Work></rdf:RDF></svg:metadata><sodipodi:namedview pagecolor="#ffffff" bordercolor="#666666" borderopacity="1" objecttolerance="10" gridtolerance="10" guidetolerance="10" inkscape:pageopacity="0" inkscape:pageshadow="2" inkscape:window-width="1920" inkscape:window-height="1009" id="namedview12" showgrid="false" inkscape:zoom="0.84890884" inkscape:cx="22.255248" inkscape:cy="285.95007" inkscape:window-x="1920" inkscape:window-y="0" inkscape:window-maximized="1" inkscape:current-layer="svg10" showguides="true" inkscape:guide-bbox="true" inkscape:document-rotation="0" inkscape:pagecheckerboard="0"><sodipodi:guide position="0,1000" orientation="0,1" id="guide16" inkscape:label="" inkscape:locked="true" inkscape:color="rgb(0,0,255)" /><sodipodi:guide position="1763.3122,2036.1693" orientation="1000,0" id="guide18" /><sodipodi:guide position="0,200" orientation="0,1" id="guide20" inkscape:label="base" inkscape:locked="true" inkscape:color="rgb(0,0,255)" /><inkscape:grid type="xygrid" id="grid24" originx="-473.37552" originy="-489.69235" /><sodipodi:guide position="0,0" orientation="0,1" id="guide34" inkscape:label="bottom" inkscape:locked="true" inkscape:color="rgb(0,0,255)" /><sodipodi:guide position="225.05109,1693.3186" orientation="0,1" id="guide44" inkscape:label="" inkscape:locked="false" inkscape:color="rgb(0,0,255)" /><sodipodi:guide position="0,900" orientation="0,1" id="guide46" inkscape:label="" inkscape:locked="true" inkscape:color="rgb(0,0,255)" /><sodipodi:guide position="161.95736,845.13789" orientation="-1,0" id="guide840" inkscape:label="width" inkscape:locked="false" inkscape:color="rgb(0,0,255)" /></sodipodi:namedview>
 <svg:defs id="defs4"><inkscape:path-effect effect="fillet_chamfer" id="path-effect843" is_visible="true" lpeversion="1" satellites_param="F,0,0,1,0,16.15953,0,1 @ F,0,0,1,0,18.189666,0,1 @ F,0,0,1,0,0,0,1 @ F,0,0,1,0,0,0,1 @ F,0,0,1,0,0,0,1 @ F,0,0,1,0,0,0,1 @ F,0,0,1,0,0,0,1 @ F,0,0,1,0,0,0,1 @ F,0,0,1,0,0,0,1 @ F,0,0,1,0,0,0,1 @ F,0,0,1,0,11.45496,0,1 @ F,0,0,1,0,19.925389,0,1 @ F,0,0,1,0,0,0,1 @ F,0,0,1,0,0,0,1 @ F,0,0,1,0,0,0,1 @ F,0,0,1,0,0,0,1 @ F,0,0,1,0,0,0,1 @ F,0,0,1,0,0,0,1 @ F,0,0,1,0,0,0,1 @ F,0,0,1,0,0,0,1" unit="px" method="auto" mode="F" radius="0" chamfer_steps="1" flexible="false" use_knot_distance="true" apply_no_radius="true" apply_with_radius="true" only_selected="true" hide_knots="false" /><inkscape:path-effect effect="fillet_chamfer" id="path-effect842" is_visible="true" lpeversion="1" satellites_param="F,0,1,1,0,19.586923,0,1 @ F,0,1,1,0,19.586923,0,1 @ F,0,0,1,0,0,0,1 @ F,0,0,1,0,0,0,1 @ F,0,0,1,0,0,0,1 @ F,0,0,1,0,0,0,1 @ F,0,0,1,0,0,0,1 @ F,0,0,1,0,0,0,1 @ F,0,0,1,0,0,0,1 @ F,0,0,1,0,0,0,1 @ F,0,1,1,0,19.586923,0,1 @ F,0,1,1,0,19.586923,0,1 @ F,0,0,1,0,0,0,1 @ F,0,0,1,0,0,0,1 @ F,0,0,1,0,0,0,1 @ F,0,0,1,0,0,0,1 @ F,0,0,1,0,0,0,1 @ F,0,0,1,0,0,0,1 @ F,0,0,1,0,0,0,1" unit="px" method="auto" mode="F" radius="0" chamfer_steps="1" flexible="false" use_knot_distance="true" apply_no_radius="true" apply_with_radius="true" only_selected="true" hide_knots="false" /><inkscape:path-effect effect="fillet_chamfer" id="path-effect841" is_visible="true" lpeversion="1" satellites_param="F,0,0,1,0,21.699264,0,1 @ F,0,0,1,0,30.783669,0,1 @ F,0,0,1,0,36.02233,0,1 @ F,0,0,1,0,0,0,1 @ F,0,0,1,0,0,0,1 @ F,0,0,1,0,22.041744,0,1 @ F,0,0,1,0,29.003567,0,1 @ F,0,0,1,0,0,0,1 @ F,0,0,1,0,0,0,1 @ F,0,0,1,0,0,0,1 @ F,0,0,1,0,0,0,1 @ F,0,0,1,0,0,0,1 @ F,0,0,1,0,0,0,1 @ F,0,0,1,0,0,0,1" unit="px" method="auto" mode="F" radius="0" chamfer_steps="1" flexible="false" use_knot_distance="true" apply_no_radius="true" apply_with_radius="true" only_selected="true" hide_knots="false" />
  <svg:style type="text/css" id="style2">
   
    .fil0 {fill:#EF7F1A;fill-rule:nonzero}
   
  </svg:style>
 <inkscape:path-effect effect="spiro" id="path-effect1214" is_visible="true" lpeversion="1" /><inkscape:path-effect effect="spiro" id="path-effect1195" is_visible="true" lpeversion="1" /></svg:defs>
 
<svg:g id="path933-9-3-62-3-6"><svg:path style="color:#000000;clip-rule:nonzero;fill:#1a5fb4;fill-rule:nonzero;stroke-linecap:round;stroke-linejoin:round;-inkscape-stroke:none;shape-rendering:auto" d="m 28.03125,181.2168 c -6.887985,0.347 -13.74353,2.18106 -19.8574219,5.65625 -12.2277841,6.95038 -20.4699151,20.07248 -22.4335941,33.52539 -2.638883,18.07865 -4.737686,36.23514 -6.292968,54.43945 -6.670215,78.07371 -3.283205,156.4702 7.240234,233.41797 13.53757711,98.98726 37.951949,193.32815 41.988281,286.51953 0.397387,9.17492 0.373801,16.68517 -0.611328,22.31836 -0.945868,5.40869 -2.955415,9.29239 -4.414062,10.89453 -1.290056,1.41697 -4.30985,3.47564 -8.634766,4.875 -4.483209,1.45058 -10.5573321,2.36397 -17.9667969,2.86524 -54.9581141,3.71801 -114.9389881,-16.10719 -182.3769481,-22.56836 -42.83903,-4.10438 -86.2179,-1.6992 -128.33008,7.07226 -12.47789,2.599 -24.24782,11.21441 -30.01172,22.94336 -5.76391,11.72896 -5.4409,25.76086 -0.32031,37.11133 l 46.67968,103.46875 c 10.80375,23.94794 38.90289,34.33904 62.47461,25.16794 25.16602,-9.79131 51.60606,-16.39783 78.40625,-19.57419 74.859823,-8.8724 156.98598891,10.17539 245.132815,4.92187 13.988675,-0.83372 29.781635,-2.31078 46.271485,-7.84375 16.74554,-5.61876 33.86133,-15.45623 46.35937,-32.19921 8.15807,-10.92895 12.79774,-22.7989 15.53125,-34.07032 2.71514,-11.19563 3.54861,-21.69259 3.96094,-31.125 4.25543,-97.34582 -34.22258,-183.91661 -49.1289,-266.07226 -13.19896,-72.74557 -10.78708,-148.62464 2.86914,-222.57617 7.38845,-40.01019 18.00612,-79.43501 31.70507,-117.74805 7.49698,-20.96743 -2.97309,-44.6794 -23.93164,-52.96875 L 48.087891,184.48047 C 41.840015,182.00936 34.919235,180.86979 28.03125,181.2168 Z m 14.748047,65.6875 81.410153,32.19726 c -12.03777,36.09329 -21.7151,72.96805 -28.624997,110.38672 -14.754842,79.90084 -17.634312,162.98891 -2.902344,244.18359 16.614851,91.57211 51.676331,173.69032 48.220701,252.74024 -0.33302,7.61809 -1.02086,14.2151 -2.32812,19.60547 -1.28888,5.31458 -3.25171,9.57265 -5.30274,12.32031 -3.11454,4.1724 -9.36467,8.5232 -17.36328,11.20703 -8.2543,2.76963 -18.690836,4.11492 -30.755858,4.83399 -76.3928386,4.55298 -159.798823,-15.14098 -248.625002,-4.61329 -28.46574,3.37377 -56.44392,10.15925 -83.41015,19.82032 l -33.51563,-74.28907 c 29.55439,-4.38769 59.65286,-5.25706 89.36719,-2.41015 58.02052,5.5589 121.362947,27.49398 192.1503894,22.70508 9.6175106,-0.65065 20.6328116,-1.83951 32.3867186,-5.64258 11.9122,-3.85429 24.332267,-10.36603 34.53125,-21.56836 11.494515,-12.62532 16.781756,-27.40678 19.150391,-40.95117 2.329374,-13.31989 1.886364,-25.20223 1.451172,-35.25 C 84.216137,690.52256 59.023819,594.37023 46.134766,500.125 36.118974,426.88916 32.997341,352.903 39.230469,279.94531 c 0.943028,-11.03798 2.178908,-22.04752 3.548828,-33.04101 z" id="path21038" /></svg:g></svg:svg>
